Adwaita++-Light/panel/24/akonaditray.svg

<svg height="24" width="24" xmlns="http://www.w3.org/2000/svg">
  <path d="m9.0019529 4.0000193c-2.206899 1.2739076-3.571463 3.4317524-3.912109 5.7636717.241385-.114525.490662-.216842.746094-.298828 1.101951-.353696 2.331193-.459726 3.617187-.464844 1.7806161-.0071 3.6820931.225001 5.4667971.566407-1.389096-2.9981724-3.395849-5.5780584-5.9179691-5.5664067zm4.2402351 1.1171875c1.042747 1.1188808 1.891926 2.5313686 2.585937 4.0292972l.318359.6875c.963016.219551 1.886754.456265 2.691407.708984-.592699-2.7758084-2.802943-4.9189349-5.595703-5.4257812zm-3.7851571 4.8828122c-2.458135.0098-4.5647179.437974-5.4570309 2.000001 0 4.418 3.5816999 8 8 8 4.418 0 8-3.582 8-8-2.340914-.915391-6.840288-2.014736-10.5429691-2.000001z" fill="#444"/>
</svg>

<svg xmlns="http://www.w3.org/2000/svg" width="24" height="24" version="1.1">
 <defs>
  <style id="current-color-scheme" type="text/css">
   .ColorScheme-Text { color:#444444; } .ColorScheme-Highlight { color:#4285f4; }
  </style>
 </defs>
 <path style="fill:currentColor" class="ColorScheme-Text" d="M 9.0019529,4.0000193 C 6.7950539,5.2739269 5.4304899,7.4317717 5.0898439,9.763691 5.3312289,9.649166 5.5805059,9.546849 5.8359379,9.464863 6.9378889,9.111167 8.1671309,9.005137 9.4531249,9.000019 11.233741,8.992919 13.135218,9.22502 14.919922,9.566426 13.530826,6.5682536 11.524073,3.9883676 9.0019529,4.0000193 Z m 4.2402351,1.1171875 c 1.042747,1.1188808 1.891926,2.5313686 2.585937,4.0292972 l 0.318359,0.6875 c 0.963016,0.219551 1.886754,0.456265 2.691407,0.708984 C 18.245192,7.7671796 16.034948,5.6240531 13.242188,5.1172068 Z M 9.4570309,10.000019 C 6.9988959,10.009819 4.892313,10.437993 4,12.00002 c 0,4.418 3.5816999,8 8,8 4.418,0 8,-3.582 8,-8 C 17.659086,11.084629 13.159712,9.985284 9.4570309,10.000019 Z"/>
</svg>
